src/assets/icons/type-rest-icon.svg

<?xml version="1.0" encoding="UTF-8" standalone="no"?>
<!-- Created with Inkscape (http://www.inkscape.org/) -->

<svg
   width="20"
   height="20"
   viewBox="0 0 5.2916665 5.2916666"
   version="1.1"
   id="svg28688"
   inkscape:version="1.2 (dc2aeda, 2022-05-15)"
   sodipodi:docname="type-rest-icon.svg"
   xmlns:inkscape="http://www.inkscape.org/namespaces/inkscape"
   xmlns:sodipodi="http://sodipodi.sourceforge.net/DTD/sodipodi-0.dtd"
   xmlns="http://www.w3.org/2000/svg"
   xmlns:svg="http://www.w3.org/2000/svg">
  <sodipodi:namedview
     id="namedview28690"
     pagecolor="#ffffff"
     bordercolor="#000000"
     borderopacity="0.25"
     inkscape:showpageshadow="2"
     inkscape:pageopacity="0.0"
     inkscape:pagecheckerboard="0"
     inkscape:deskcolor="#d1d1d1"
     inkscape:document-units="mm"
     showgrid="false"
     inkscape:zoom="15.219065"
     inkscape:cx="19.876385"
     inkscape:cy="10.151741"
     inkscape:window-width="1390"
     inkscape:window-height="905"
     inkscape:window-x="2404"
     inkscape:window-y="259"
     inkscape:window-maximized="0"
     inkscape:current-layer="layer1" />
  <defs
     id="defs28685" />
  <g
     inkscape:label="Layer 1"
     inkscape:groupmode="layer"
     id="layer1">
    <circle
       style="fill:#00d4aa;stroke-width:0.0900882;stroke-linecap:round"
       id="path355-7"
       cx="2.6458333"
       cy="2.6458333"
       r="2.6458333" />
    <g
       aria-label="{}"
       id="text39016"
       style="font-size:2.82222px;-inkscape-font-specification:sans-serif;fill:none;stroke:#ffffff;stroke-width:0.10583333;stroke-linecap:round;stroke-dasharray:none">
      <path
         d="M 2.3881404,3.9880415 H 2.1814348 q -0.2466687,0 -0.4010088,-0.1378037 Q 1.6274639,3.7138121 1.6274639,3.4547411 V 3.2494136 q 0,-0.2328883 -0.1143771,-0.3638018 Q 1.3987097,2.7533202 1.1630653,2.7533202 h -0.07028 V 2.5383464 h 0.07028 q 0.2356444,0 0.3500215,-0.1309135 Q 1.6274639,2.2751413 1.6274639,2.042253 V 1.8369255 q 0,-0.259071 0.1529621,-0.3954967 Q 1.9347661,1.3036251 2.1814348,1.3036251 H 2.3881404 V 1.4937943 H 2.2310441 q -0.187413,0 -0.2728513,0.086816 -0.08406,0.086816 -0.08406,0.2797415 v 0.2411565 q 0,0.1915472 -0.1061088,0.3224607 -0.1061089,0.1295355 -0.2949,0.2053276 v 0.033073 q 0.1887911,0.075792 0.2949,0.2067055 0.1061088,0.1295355 0.1061088,0.3210827 v 0.2411565 q 0,0.1929252 0.08406,0.2797415 0.085438,0.086816 0.2728513,0.086816 h 0.1570963 z"
         style="fill:#ffffff;stroke-width:0.10583333;stroke-dasharray:none"
         id="path39127" />
      <path
         d="m 4.1988812,2.7533202 h -0.07028 q -0.2356443,0 -0.3500214,0.1322916 -0.1143771,0.1309135 -0.1143771,0.3638018 v 0.2053275 q 0,0.259071 -0.1543401,0.3954967 Q 3.3569005,3.9880415 3.1102319,3.9880415 H 2.9035263 V 3.7978724 h 0.1570963 q 0.187413,0 0.2714733,-0.086816 0.085438,-0.086816 0.085438,-0.2797415 V 3.190158 q 0,-0.1915472 0.1061088,-0.3210827 0.1061089,-0.1309135 0.2949,-0.2067055 V 2.6292969 Q 3.6297519,2.5535048 3.523643,2.4239693 3.4175342,2.2930558 3.4175342,2.1015086 V 1.8603521 q 0,-0.1929252 -0.085438,-0.2797415 -0.08406,-0.086816 -0.2714733,-0.086816 H 2.9035263 V 1.3036251 h 0.2067056 q 0.2466686,0 0.3996308,0.1378037 0.1543401,0.1364257 0.1543401,0.3954967 V 2.042253 q 0,0.2328883 0.1143771,0.3651799 0.1143771,0.1309135 0.3500214,0.1309135 h 0.07028 z"
         style="fill:#ffffff;stroke-width:0.10583333;stroke-dasharray:none"
         id="path39129" />
    </g>
  </g>
</svg>

<svg width="20" height="20" version="1.1" viewBox="0 0 5.2917 5.2917" xmlns="http://www.w3.org/2000/svg">
 <g stroke-linecap="round">
  <circle cx="2.6458" cy="2.6458" r="2.6458" fill="#00d4aa" stroke-width=".090088"/>
  <g fill="#fff" stroke="#fff" stroke-width=".10583" aria-label="{}">
   <path d="m2.3881 3.988h-0.20671q-0.24667 0-0.40101-0.1378-0.15296-0.13643-0.15296-0.3955v-0.20533q0-0.23289-0.11438-0.3638-0.11438-0.13229-0.35002-0.13229h-0.07028v-0.21497h0.07028q0.23564 0 0.35002-0.13091 0.11438-0.13229 0.11438-0.36518v-0.20533q0-0.25907 0.15296-0.3955 0.15434-0.1378 0.40101-0.1378h0.20671v0.19017h-0.1571q-0.18741 0-0.27285 0.086816-0.08406 0.086816-0.08406 0.27974v0.24116q0 0.19155-0.10611 0.32246-0.10611 0.12954-0.2949 0.20533v0.033073q0.18879 0.075792 0.2949 0.20671 0.10611 0.12954 0.10611 0.32108v0.24116q0 0.19293 0.08406 0.27974 0.085438 0.086816 0.27285 0.086816h0.1571z"/>
   <path d="m4.1989 2.7533h-0.07028q-0.23564 0-0.35002 0.13229-0.11438 0.13091-0.11438 0.3638v0.20533q0 0.25907-0.15434 0.3955-0.15296 0.1378-0.39963 0.1378h-0.20671v-0.19017h0.1571q0.18741 0 0.27147-0.086816 0.085438-0.086816 0.085438-0.27974v-0.24116q0-0.19155 0.10611-0.32108 0.10611-0.13091 0.2949-0.20671v-0.033073q-0.18879-0.075792-0.2949-0.20533-0.10611-0.13091-0.10611-0.32246v-0.24116q0-0.19293-0.085438-0.27974-0.08406-0.086816-0.27147-0.086816h-0.1571v-0.19017h0.20671q0.24667 0 0.39963 0.1378 0.15434 0.13643 0.15434 0.3955v0.20533q0 0.23289 0.11438 0.36518 0.11438 0.13091 0.35002 0.13091h0.07028z"/>
  </g>
 </g>
</svg>
